packages/components/src/images/icons/wallet.svg

<svg viewBox="0 0 16 16" xmlns="http://www.w3.org/2000/svg" xml:space="preserve" style="fill-rule:evenodd;clip-rule:evenodd;stroke-linejoin:round;stroke-miterlimit:2"><path d="M10.76 8.92a2.248 2.248 0 0 0-2.24 2.24v15.96c0 1.076.884 1.96 1.96 1.96h19.04c1.076 0 1.96-.884 1.96-1.96V14.24c0-1.076-.884-1.96-1.96-1.96h-1.4v-2.8a.582.582 0 0 0-.56-.56h-16.8Zm0 1.12H27v2.24H10.76c-.63 0-1.12-.49-1.12-1.12 0-.63.49-1.12 1.12-1.12Zm-1.12 3.054c.33.192.713.306 1.12.306 6.307-.006 13.34 0 18.76 0 .475 0 .84.365.84.84v2.8h-8.12c-.766 0-1.4.634-1.4 1.4v4.48c0 .766.634 1.4 1.4 1.4h8.12v2.8c0 .475-.365.84-.84.84H10.48a.826.826 0 0 1-.84-.84V13.094Zm12.6 5.066h8.12v5.04h-8.12a.268.268 0 0 1-.28-.28v-4.48c0-.165.115-.28.28-.28Zm2.8 1.4a1.12 1.12 0 1 0 0 2.24 1.12 1.12 0 0 0 0-2.24Z" style="fill-rule:nonzero" transform="matrix(.52339 0 0 .53716 -2.462 -2.385)"/></svg>

<svg width="100%" height="100%" viewBox="0 0 16 16" version="1.1" xmlns="http://www.w3.org/2000/svg" xmlns:xlink="http://www.w3.org/1999/xlink" xml:space="preserve" xmlns:serif="http://www.serif.com/" style="fill-rule:evenodd;clip-rule:evenodd;stroke-linejoin:round;stroke-miterlimit:2;">
    <g transform="matrix(0.523389,0,0,0.537163,-2.4616,-2.38536)">
        <path d="M10.76,8.92C9.529,8.92 8.52,9.929 8.52,11.16L8.52,27.12C8.52,28.196 9.404,29.08 10.48,29.08L29.52,29.08C30.596,29.08 31.48,28.196 31.48,27.12L31.48,14.24C31.48,13.164 30.596,12.28 29.52,12.28L28.12,12.28L28.12,9.48C28.12,9.187 27.853,8.92 27.56,8.92L10.76,8.92ZM10.76,10.04L27,10.04L27,12.28L10.76,12.28C10.13,12.28 9.64,11.79 9.64,11.16C9.64,10.53 10.13,10.04 10.76,10.04ZM9.64,13.094C9.97,13.286 10.353,13.4 10.76,13.4C17.067,13.394 24.1,13.4 29.52,13.4C29.995,13.4 30.36,13.765 30.36,14.24L30.36,17.04L22.24,17.04C21.474,17.04 20.84,17.674 20.84,18.44L20.84,22.92C20.84,23.686 21.474,24.32 22.24,24.32L30.36,24.32L30.36,27.12C30.36,27.595 29.995,27.96 29.52,27.96L10.48,27.96C10.005,27.96 9.64,27.595 9.64,27.12L9.64,13.094ZM22.24,18.16L30.36,18.16L30.36,23.2L22.24,23.2C22.075,23.2 21.96,23.085 21.96,22.92L21.96,18.44C21.96,18.275 22.075,18.16 22.24,18.16ZM25.04,19.56C24.422,19.56 23.92,20.061 23.92,20.68C23.92,21.299 24.422,21.8 25.04,21.8C25.659,21.8 26.16,21.298 26.16,20.68C26.16,20.061 25.659,19.56 25.04,19.56Z" style="fill-rule:nonzero;"/>
    </g>
</svg>
